static/assets/images/icons/table-view.svg

<svg width="256" height="256" viewBox="0 0 256 256" fill="none" xmlns="http://www.w3.org/2000/svg">
<path d="M23 73.9876C23 66.8148 29.3242 61 37.1256 61H218.874C226.676 61 233 66.8148 233 73.9876V84.3777C233 91.5506 226.676 97.3653 218.874 97.3653H37.1256C29.3242 97.3653 23 91.5506 23 84.3777V73.9876Z" fill="black"/>
<path fill-rule="evenodd" clip-rule="evenodd" d="M37.1256 158.271C29.3242 158.271 23 164.086 23 171.259V181.649C23 188.822 29.3242 194.636 37.1256 194.636H79.9731C82.5735 194.636 84.6816 192.698 84.6816 190.307V162.6C84.6816 160.209 82.5735 158.271 79.9731 158.271H37.1256ZM97.8655 190.307C97.8655 192.698 99.9735 194.636 102.574 194.636H218.874C226.676 194.636 233 188.822 233 181.649V171.259C233 164.086 226.676 158.271 218.874 158.271H102.574C99.9735 158.271 97.8655 160.209 97.8655 162.6V190.307Z" fill="black"/>
<path fill-rule="evenodd" clip-rule="evenodd" d="M37.1256 109.636C29.3242 109.636 23 115.45 23 122.623V133.013C23 140.186 29.3242 146.001 37.1256 146.001H79.9731C82.5735 146.001 84.6816 144.063 84.6816 141.672V113.965C84.6816 111.574 82.5735 109.636 79.9731 109.636H37.1256ZM97.8655 141.672C97.8655 144.063 99.9735 146.001 102.574 146.001H218.874C226.676 146.001 233 140.186 233 133.013V122.623C233 115.45 226.676 109.636 218.874 109.636H102.574C99.9735 109.636 97.8655 111.574 97.8655 113.965V141.672Z" fill="black"/>
</svg>

<svg xmlns="http://www.w3.org/2000/svg" viewBox="0 0 256 256"><path d="M23 73.988C23 66.815 29.324 61 37.126 61h181.748C226.676 61 233 66.815 233 73.988v10.39c0 7.173-6.324 12.987-14.126 12.987H37.126C29.324 97.365 23 91.551 23 84.378z"/><path fill-rule="evenodd" d="M37.126 158.271c-7.802 0-14.126 5.815-14.126 12.988v10.39c0 7.173 6.324 12.987 14.126 12.987h42.847c2.6 0 4.709-1.938 4.709-4.329V162.6c0-2.391-2.109-4.329-4.709-4.329zm60.74 32.036c0 2.391 2.108 4.329 4.708 4.329h116.3c7.802 0 14.126-5.814 14.126-12.987v-10.39c0-7.173-6.324-12.988-14.126-12.988h-116.3c-2.6 0-4.709 1.938-4.709 4.329zm-60.74-80.671c-7.802 0-14.126 5.814-14.126 12.987v10.39c0 7.173 6.324 12.988 14.126 12.988h42.847c2.6 0 4.709-1.938 4.709-4.329v-27.707c0-2.391-2.109-4.329-4.709-4.329zm60.74 32.036c0 2.391 2.108 4.329 4.708 4.329h116.3c7.802 0 14.126-5.815 14.126-12.988v-10.39c0-7.173-6.324-12.987-14.126-12.987h-116.3c-2.6 0-4.709 1.938-4.709 4.329z" clip-rule="evenodd"/></svg>
